X:4
T:Bill Sullivan's Polka
C:Traditional
N:Play twice
N:The Derradda Set, Figure 2, Tune 2 of 2
Z:Gordon Turnbull, Edinburgh
Z:gturnbull@theflow.org.uk
Z:http://www.theflow.org.uk
R:Polka
M:2/4
L:1/8
Q:240
K:A
a2 af | ec a>e | ce a>f | ec BA |\
a2 af | ec a>e | ce B>c | BA A2 :|
ce eA | df fe | ce eA | cB BA/B/ |\
ce eA | df fe | ce B>c | BA A2 :||
